build/assets/images/proyectos/logos/logo-laboral-kutxa.svg

<svg width="200" height="200" viewBox="0 0 200 200" fill="none" xmlns="http://www.w3.org/2000/svg">
<rect width="200" height="200" fill="white"/>
<g clip-path="url(#clip0)">
<path d="M134.343 111.667V111.8H151.807L151.913 111.72L151.887 111.694L151.807 111.667H134.343V111.667ZM175.048 95.5341L175.235 95.401H146.536L146.429 95.4809L146.456 95.5075L146.536 95.5341H175.048V95.5341Z" fill="black"/>
<path d="M179.787 72.1598L146.562 95.4011H146.536H134.343V103.947V111.8V124.02L151.807 111.8H179.787V95.4011H175.261L179.787 92.233V72.1598ZM149.278 104.426C149.145 105.118 149.304 107.301 150.13 107.461C150.423 107.514 150.662 107.461 150.902 107.328L151.621 106.929L151.754 109.83H147.148C147.308 108.632 147.388 107.647 147.468 106.769L147.627 104.426C146.696 104.293 145.684 103.947 144.832 103.281C144.087 102.669 143.661 101.924 143.607 101.018C143.501 99.421 145.604 97.4243 148.319 97.4243H149.118C149.411 97.451 149.704 97.4776 150.023 97.5575C149.837 97.9568 149.597 98.436 149.544 99.2613C149.251 99.1814 149.012 99.1282 148.666 99.1282C146.696 99.1282 146.163 100.459 146.163 100.965C146.163 102.27 147.441 102.722 148.399 102.802C149.092 102.882 149.757 102.722 150.343 102.323C150.769 102.03 150.875 101.924 151.088 101.444C151.594 101.711 152.739 101.79 153.564 101.498C153.378 103.148 151.141 104.373 149.278 104.426Z" fill="black"/>
<path d="M30.5957 109.058H23.0615V95.401H20.0532V109.777C20.0532 110.389 20.2662 110.922 20.6655 111.321C21.0649 111.694 21.5973 111.88 22.2363 111.88H30.5957V109.058ZM48.1664 111.907L42.4426 96.599C42.1231 95.7471 41.4576 95.2946 40.5524 95.2946C39.6472 95.2946 38.9551 95.7738 38.6622 96.599L32.8319 111.907H36L37.3045 108.526H43.6672L44.9717 111.907H48.1664ZM42.6822 105.704H38.2895L40.5258 99.6872L42.6822 105.704ZM63.6339 107.408C63.6339 106.795 63.5274 106.21 63.2878 105.677C63.0482 105.171 62.7288 104.692 62.3028 104.24L61.5308 103.441L62.1165 102.642C62.3827 102.216 62.5957 101.79 62.782 101.338C62.9684 100.832 63.0482 100.3 63.0482 99.7139C63.0482 98.3029 62.5957 97.2114 61.6905 96.4659C60.8386 95.7738 59.7204 95.401 58.3361 95.401H53.3577C52.7188 95.401 52.1863 95.5874 51.8136 95.9601C51.5208 96.2263 51.2013 96.7055 51.2013 97.4776V109.804C51.2013 110.416 51.4409 110.948 51.8402 111.348C52.2396 111.721 52.772 111.907 53.411 111.907H58.4692C60.0133 111.907 61.2912 111.508 62.1963 110.709C63.1547 109.884 63.6339 108.792 63.6339 107.408ZM60.1198 99.7405C60.1198 100.033 60.0665 100.3 59.9601 100.566C59.8536 100.859 59.6938 101.151 59.5607 101.364L58.9484 102.243H54.1564V98.1431H58.3361C58.8153 98.1431 59.4276 98.223 59.7204 98.5425C59.9867 98.8619 60.1198 99.2347 60.1198 99.7405ZM54.1564 109.112V104.985H59.0283L59.9334 105.943C60.173 106.183 60.3594 106.449 60.4925 106.716C60.599 106.955 60.6522 107.195 60.6522 107.488C60.6522 108.02 60.4925 108.393 60.173 108.659C59.8269 108.952 59.2679 109.112 58.5224 109.112H54.1564V109.112ZM81.9234 103.681C81.9234 102.376 81.7371 101.205 81.391 100.166C81.0449 99.1282 80.5125 98.2496 79.8469 97.5308C79.1813 96.812 78.3561 96.253 77.4243 95.8802C76.4925 95.5075 75.4542 95.3212 74.3627 95.3212C73.2446 95.3212 72.2063 95.5075 71.2745 95.8802C70.3161 96.253 69.4908 96.812 68.7987 97.5308C68.1065 98.2496 67.574 99.1548 67.2013 100.193C66.8286 101.205 66.6689 102.403 66.6689 103.681C66.6689 104.985 66.8552 106.156 67.2013 107.168C67.574 108.206 68.0799 109.112 68.7454 109.804C69.411 110.523 70.2363 111.082 71.168 111.454C72.0998 111.827 73.1115 112.013 74.2562 112.013C75.3744 112.013 76.386 111.827 77.3178 111.481C78.2762 111.108 79.1015 110.576 79.7937 109.83C80.4858 109.112 81.0183 108.206 81.3644 107.195C81.7637 106.21 81.9234 105.012 81.9234 103.681ZM70.9817 107.887C70.5823 107.408 70.2629 106.849 70.0499 106.156C69.8103 105.438 69.7038 104.612 69.7038 103.681C69.7038 101.844 70.1298 100.433 70.9284 99.5009C71.7271 98.5691 72.8186 98.1165 74.2828 98.1165C75.0016 98.1165 75.6672 98.223 76.2263 98.4626C76.7853 98.7022 77.2645 99.0217 77.6639 99.5009C78.0632 99.9801 78.3561 100.539 78.569 101.231C78.8086 101.924 78.9151 102.775 78.9151 103.707C78.9151 105.571 78.5158 106.982 77.6905 107.94C76.8918 108.845 75.8003 109.298 74.3627 109.298C73.6439 109.298 72.9784 109.165 72.3927 108.925C71.8336 108.686 71.381 108.339 70.9817 107.887ZM98.0566 111.907L94.6223 104.692L95.5541 103.521C95.8735 103.068 96.193 102.562 96.4326 102.03C96.6988 101.444 96.8319 100.832 96.8319 100.166C96.8319 98.649 96.3794 97.451 95.5008 96.6257C94.6489 95.827 93.4509 95.4277 91.9867 95.4277H87.168C86.5025 95.4277 85.9967 95.614 85.5973 95.9867C85.3311 96.253 84.985 96.7055 84.985 97.5042V111.933H87.9667V105.81H91.8802L94.7554 111.933H98.0566V111.907ZM87.9667 103.042V98.1698H91.96C92.3594 98.1698 92.6788 98.223 92.9184 98.3295C93.158 98.4094 93.3178 98.5425 93.4509 98.6756C93.584 98.8353 93.6905 99.0217 93.7704 99.2613C93.8502 99.5275 93.8769 99.847 93.8769 100.193C93.8769 100.539 93.797 100.832 93.6639 101.151C93.4775 101.524 93.2645 101.844 93.0249 102.19L92.386 103.068H87.9667V103.042ZM115.627 111.907L109.903 96.599C109.611 95.7471 108.918 95.2946 108.013 95.2946C107.082 95.2946 106.416 95.7738 106.123 96.599L100.293 111.907H103.461L104.765 108.526H111.155L112.459 111.907H115.627ZM110.143 105.704H105.724L107.96 99.6872L110.143 105.704ZM120.898 109.058V95.401H117.864V109.777C117.864 110.389 118.077 110.922 118.476 111.321C118.875 111.694 119.408 111.88 120.073 111.88H128.433V109.058H120.898ZM100.453 126.682L99.5474 126.895L98.8818 127.002L98.3494 127.055L97.9234 127.082C97.4709 127.082 97.0981 127.028 96.7787 126.895C96.4858 126.789 96.2462 126.629 96.0333 126.416C95.8469 126.203 95.7138 125.963 95.6605 125.671C95.5807 125.378 95.5541 125.058 95.5541 124.739V118.829H94.2762V124.872C94.2762 125.351 94.3561 125.777 94.4625 126.176C94.5957 126.602 94.782 126.948 95.0749 127.241C95.3677 127.534 95.7138 127.774 96.1397 127.96C96.5923 128.12 97.1248 128.226 97.7371 128.226L98.8552 128.146C99.3078 128.12 99.9201 127.987 100.692 127.8C101.358 127.641 101.677 127.215 101.677 126.576V118.829H100.426V126.682H100.453V126.682ZM109.318 126.815L108.253 127.028L107.587 127.082C107.028 127.082 106.656 126.948 106.443 126.629C106.23 126.336 106.123 125.857 106.123 125.218V119.973H109.291V118.829H106.123V116.406L104.872 116.672V118.829H103.381V119.973H104.872V125.325C104.872 127.295 105.777 128.28 107.561 128.28C107.96 128.28 108.626 128.2 109.531 128.013L109.318 126.815ZM128.433 126.682V121.864C128.433 121.305 128.353 120.825 128.166 120.426C127.98 120.027 127.74 119.707 127.421 119.468C127.128 119.201 126.755 119.015 126.356 118.909C125.957 118.802 125.504 118.749 125.052 118.749C125.052 118.749 123.241 118.696 121.085 119.255L121.351 120.399C121.351 120.399 123.348 119.84 125.025 119.92H125.052C125.717 119.92 126.223 120.08 126.622 120.373C127.048 120.666 127.235 121.198 127.235 121.89V122.955H124.413C123.933 122.955 123.454 123.008 123.002 123.088C122.549 123.195 122.176 123.354 121.83 123.567C121.484 123.78 121.218 124.073 121.032 124.419C120.819 124.765 120.739 125.218 120.739 125.75C120.739 126.549 121.005 127.188 121.537 127.641C122.07 128.093 122.815 128.333 123.8 128.333C124.173 128.333 124.599 128.28 125.052 128.2L126.383 127.907L127.075 127.721L127.261 127.694V128.226H128.486V126.682H128.433V126.682ZM127.208 126.576L126.17 126.815L124.918 127.055C124.519 127.108 124.2 127.135 123.933 127.135C123.294 127.135 122.815 127.002 122.469 126.762C122.123 126.523 121.963 126.15 121.963 125.644C121.963 125.058 122.176 124.632 122.602 124.393C123.028 124.153 123.614 123.993 124.386 123.993H127.235V126.576H127.208ZM86.183 116.406L84.9584 116.672V128.173H86.183V123.381H87.8602L91.0815 128.146H92.5724L88.9517 122.769L92.599 118.829H90.9484L87.8868 122.156H86.2096V116.406H86.183V116.406ZM119.008 128.146L116.399 123.461L118.955 118.829H117.411L115.414 122.769H114.829L112.832 118.829H111.288L113.844 123.461L111.235 128.146H112.725L114.829 123.967H115.414L117.517 128.146H119.008Z" fill="black"/>
</g>
<defs>
<clipPath id="clip0">
<rect width="160" height="56.4393" fill="white" transform="translate(20 72)"/>
</clipPath>
</defs>
</svg>

<svg width="200" height="200" fill="none" xmlns="http://www.w3.org/2000/svg"><path fill="#fff" d="M0 0h200v200H0z"/><g clip-path="url(#clip0)" fill="#000"><path d="M134.343 111.667v.133h17.464l.106-.08-.026-.026-.08-.027h-17.464zm40.705-16.133l.187-.133h-28.699l-.107.08.027.026.08.027h28.512z"/><path d="M179.787 72.16L146.562 95.4h-12.219v28.619l17.464-12.22h27.98V95.401h-4.526l4.526-3.168V72.16zm-30.509 32.266c-.133.692.026 2.875.852 3.035a1.1 1.1 0 00.772-.133l.719-.399.133 2.901h-4.606c.16-1.198.24-2.183.32-3.061l.159-2.343c-.931-.133-1.943-.479-2.795-1.145-.745-.612-1.171-1.357-1.225-2.263-.106-1.597 1.997-3.594 4.712-3.594h.799c.293.027.586.054.905.133-.186.4-.426.879-.479 1.704a3.036 3.036 0 00-.878-.133c-1.97 0-2.503 1.331-2.503 1.837 0 1.305 1.278 1.757 2.236 1.837.693.08 1.358-.08 1.944-.479.426-.293.532-.399.745-.879.506.267 1.651.346 2.476.054-.186 1.65-2.423 2.875-4.286 2.928zm-118.682 4.632H23.06V95.401h-3.008v14.376c0 .612.213 1.145.613 1.544.399.373.931.559 1.57.559h8.36v-2.822zm17.57 2.849l-5.723-15.308c-.32-.852-.985-1.304-1.89-1.304-.906 0-1.598.479-1.89 1.304l-5.831 15.308H36l1.304-3.381h6.363l1.305 3.381h3.194zm-5.484-6.203H38.29l2.237-6.017 2.156 6.017zm20.952 1.704a4.19 4.19 0 00-.346-1.731 5.521 5.521 0 00-.985-1.437l-.772-.799.586-.799c.266-.426.479-.852.665-1.304a4.62 4.62 0 00.266-1.624c0-1.411-.452-2.503-1.358-3.248-.851-.692-1.97-1.065-3.354-1.065h-4.978c-.64 0-1.172.186-1.544.56-.293.265-.613.745-.613 1.517v12.326c0 .612.24 1.144.64 1.544.399.373.931.559 1.57.559h5.058c1.544 0 2.822-.399 3.727-1.198.959-.825 1.438-1.917 1.438-3.301zM60.12 99.74c0 .293-.053.56-.16.826a4.454 4.454 0 01-.4.798l-.612.879h-4.792v-4.1h4.18c.48 0 1.092.08 1.384.4.267.319.4.692.4 1.197zm-5.964 9.372v-4.127h4.872l.905.958c.24.24.426.506.56.773.106.239.16.479.16.772 0 .532-.16.905-.48 1.171-.346.293-.905.453-1.65.453h-4.367zm27.767-5.431c0-1.305-.186-2.476-.532-3.515a7.193 7.193 0 00-1.544-2.635 6.654 6.654 0 00-2.423-1.65c-.931-.374-1.97-.56-3.061-.56-1.118 0-2.157.186-3.088.56a6.857 6.857 0 00-2.476 1.65c-.693.719-1.225 1.624-1.598 2.662-.372 1.012-.532 2.21-.532 3.488 0 1.304.186 2.475.532 3.487.373 1.038.879 1.944 1.544 2.636a6.641 6.641 0 002.423 1.65c.932.373 1.944.559 3.088.559a8.7 8.7 0 003.062-.532c.958-.373 1.784-.905 2.476-1.651.692-.718 1.224-1.624 1.57-2.635.4-.985.56-2.183.56-3.514zm-10.941 4.206a4.894 4.894 0 01-.932-1.731c-.24-.718-.346-1.544-.346-2.475 0-1.837.426-3.248 1.224-4.18.8-.932 1.89-1.385 3.355-1.385.719 0 1.384.107 1.943.347.56.24 1.038.559 1.438 1.038.4.48.692 1.038.905 1.73.24.693.346 1.544.346 2.476 0 1.864-.4 3.275-1.225 4.233-.798.905-1.89 1.358-3.327 1.358a5.186 5.186 0 01-1.97-.373 3.891 3.891 0 01-1.411-1.038zm27.075 4.02l-3.435-7.215.932-1.171a9.19 9.19 0 00.879-1.491 4.427 4.427 0 00.399-1.864c0-1.517-.453-2.715-1.331-3.54-.852-.799-2.05-1.198-3.514-1.198h-4.819c-.666 0-1.171.186-1.57.559-.267.266-.613.719-.613 1.517v14.429h2.982v-6.123h3.913l2.875 6.123h3.302v-.026zm-10.09-8.865V98.17h3.993c.4 0 .719.053.958.16.24.08.4.213.533.346.133.16.24.346.32.585.08.267.106.586.106.932 0 .346-.08.639-.213.958-.186.373-.4.693-.64 1.039l-.638.878h-4.42v-.026zm27.66 8.865l-5.724-15.308c-.292-.852-.985-1.304-1.89-1.304-.931 0-1.597.479-1.89 1.304l-5.83 15.308h3.168l1.304-3.381h6.39l1.304 3.381h3.168zm-5.484-6.203h-4.419l2.236-6.017 2.183 6.017zm10.755 3.354V95.401h-3.034v14.376c0 .612.213 1.145.612 1.544.399.373.932.559 1.597.559h8.36v-2.822h-7.535zm-20.445 17.624l-.906.213-.665.107-.533.053-.426.027c-.452 0-.825-.054-1.144-.187a1.989 1.989 0 01-.746-.479 1.527 1.527 0 01-.373-.745 3.582 3.582 0 01-.106-.932v-5.91h-1.278v6.043c0 .479.08.905.187 1.304.133.426.319.772.612 1.065a3.4 3.4 0 001.065.719c.452.16.985.266 1.597.266l1.118-.08c.453-.026 1.065-.159 1.837-.346.666-.159.985-.585.985-1.224v-7.747h-1.251v7.853h.027zm8.865.133l-1.065.213-.666.054c-.559 0-.931-.134-1.144-.453-.213-.293-.32-.772-.32-1.411v-5.245h3.168v-1.144h-3.168v-2.423l-1.251.266v2.157h-1.491v1.144h1.491v5.352c0 1.97.905 2.955 2.689 2.955.399 0 1.065-.08 1.97-.267l-.213-1.198zm19.115-.133v-4.818c0-.559-.08-1.039-.267-1.438-.186-.399-.426-.719-.745-.958a2.55 2.55 0 00-1.065-.559 5.125 5.125 0 00-1.304-.16s-1.811-.053-3.967.506l.266 1.144s1.997-.559 3.674-.479h.027c.665 0 1.171.16 1.57.453.426.293.613.825.613 1.517v1.065h-2.822c-.48 0-.959.053-1.411.133a3.877 3.877 0 00-1.172.479 2.226 2.226 0 00-.798.852c-.213.346-.293.799-.293 1.331 0 .799.266 1.438.798 1.891.533.452 1.278.692 2.263.692.373 0 .799-.053 1.252-.133l1.331-.293.692-.186.186-.027v.532h1.225v-1.544h-.053zm-1.225-.106l-1.038.239-1.252.24c-.399.053-.718.08-.985.08-.639 0-1.118-.133-1.464-.373-.346-.239-.506-.612-.506-1.118 0-.586.213-1.012.639-1.251.426-.24 1.012-.4 1.784-.4h2.849v2.583h-.027zm-41.025-10.17l-1.225.266v11.501h1.225v-4.792h1.677l3.222 4.765h1.49l-3.62-5.377 3.647-3.94h-1.65l-3.062 3.327H86.21v-5.75h-.027zm32.825 11.74l-2.609-4.685 2.556-4.632h-1.544l-1.997 3.94h-.585l-1.997-3.94h-1.544l2.556 4.632-2.609 4.685h1.49l2.104-4.179h.585l2.103 4.179h1.491z"/></g><defs><clipPath id="clip0"><path fill="#fff" transform="translate(20 72)" d="M0 0h160v56.439H0z"/></clipPath></defs></svg>
